assets/images/logo/logo-01.svg

<svg width="152" height="48" viewBox="0 0 152 48" fill="none" xmlns="http://www.w3.org/2000/svg">
<mask id="mask0_947_6362" style="mask-type:alpha" maskUnits="userSpaceOnUse" x="0" y="0" width="48" height="48">
<rect width="48" height="48" rx="10" fill="#D9D9D9"/>
</mask>
<g mask="url(#mask0_947_6362)">
<path fill-rule="evenodd" clip-rule="evenodd" d="M11.0213 26.6708V33.3609H5.26936V30.0158C5.26936 28.1799 6.92931 26.6708 8.96564 26.6708H11.0213ZM12.4978 15.2227L0 27.4109V48.0579H46.6425L12.4978 15.2227ZM15.2001 26.6708C17.2364 26.6708 18.8964 28.1799 18.8964 30.0158V33.3609H13.1348V26.6708H15.2001ZM11.0213 35.1199V42.4444H5.26936V35.1199H11.0213ZM18.8964 35.1199V42.4444H13.1348V35.1199H18.8964Z" fill="#1F1F25"/>
<path fill-rule="evenodd" clip-rule="evenodd" d="M32.2338 25.3378H34.7334V27.8273H32.2338V25.3378ZM32.2338 22.1561H34.7334V24.6457H32.2338V22.1561ZM35.6309 25.3378H38.1305V27.8273H35.6309V25.3378ZM35.6309 24.6457V22.1561H38.1305V24.6457H35.6309ZM25.0826 22.7232L48.0033 44.764V30.759L35.0712 17.3885L29.3772 23.3384L27.0899 21.1372L34.8782 13.236L40.3695 19.3397V15.8697H44.4422V22.8097L47.9937 26.5489V0H0V22.5598L12.3724 10.4965L19.7746 17.6095V12.0249H25.0826V22.7232Z" fill="#F47629"/>
</g>
<path d="M76.6118 35.0426H69V12H76.678C80.0316 12 82.7785 13.0712 84.9186 15.2136C87.0588 17.3333 88.1288 19.9771 88.1288 23.1452C88.1288 26.8375 87.0698 29.7434 84.9517 31.8631C82.8557 33.9827 80.0758 35.0426 76.6118 35.0426ZM76.5125 16.3418H74.229V30.7349H76.5456C78.5975 30.7349 80.175 30.0739 81.2782 28.752C82.4034 27.4301 82.966 25.5611 82.966 23.1452C82.966 21.0939 82.4034 19.4529 81.2782 18.2222C80.153 16.9686 78.5644 16.3418 76.5125 16.3418Z" fill="#1F1F25"/>
<path d="M99.203 16.2735H96.6878V22.7691H99.1037C101.31 22.7691 102.413 21.6523 102.413 19.4187C102.413 18.4387 102.126 17.6752 101.553 17.1282C100.979 16.5584 100.196 16.2735 99.203 16.2735ZM96.6878 35.0426H91.5911V12H99.3023C101.795 12 103.792 12.6838 105.292 14.0513C106.815 15.4188 107.576 17.1965 107.576 19.3846C107.576 22.6666 106.219 24.9344 103.505 26.1879L109.165 35.0426H103.075L98.2432 27.0426H96.6878V35.0426Z" fill="#1F1F25"/>
<path d="M117.348 35.0426H112.251V12H117.348V35.0426Z" fill="#1F1F25"/>
<path d="M135.308 35.0426H121.971V12H127.068V30.4272H135.308V35.0426Z" fill="#1F1F25"/>
<path d="M151.468 35.0426H138.131V12H143.227V30.4272H151.468V35.0426Z" fill="#1F1F25"/>
</svg>

<?xml version="1.0" encoding="UTF-8"?><svg id="Capa_1" xmlns="http://www.w3.org/2000/svg" xmlns:xlink="http://www.w3.org/1999/xlink" viewBox="0 0 152 48.06"><defs><mask id="mask" x="0" y="0" width="48" height="48.06" maskUnits="userSpaceOnUse"><g id="mask0_947_6362"><rect width="48" height="48" rx="10" ry="10" style="fill:#d9d9d9; stroke-width:0px;"/></g></mask></defs><g style="mask:url(#mask);"><path d="M11.02,26.67v6.69h-5.75v-3.35c0-1.84,1.66-3.35,3.7-3.35h2.06ZM12.5,15.22L0,27.41v20.65h46.64L12.5,15.22ZM15.2,26.67c2.04,0,3.7,1.51,3.7,3.35v3.35h-5.76v-6.69h2.07ZM11.02,35.12v7.32h-5.75v-7.32h5.75ZM18.9,35.12v7.32h-5.76v-7.32h5.76Z" style="fill:#1f1f25; fill-rule:evenodd; stroke-width:0px;"/><path d="M32.23,25.34h2.5v2.49h-2.5v-2.49ZM32.23,22.16h2.5v2.49h-2.5v-2.49ZM35.63,25.34h2.5v2.49h-2.5v-2.49ZM35.63,24.65v-2.49h2.5v2.49h-2.5ZM25.08,22.72l22.92,22.04v-14l-12.93-13.37-5.69,5.95-2.29-2.2,7.79-7.9,5.49,6.1v-3.47h4.07v6.94l3.55,3.74V0H0v22.56l12.37-12.06,7.4,7.11v-5.58h5.31v10.7Z" style="fill:#f47629; fill-rule:evenodd; stroke-width:0px;"/></g><text transform="translate(48.63 17.79) scale(1.18 1)" style="fill:#000; font-family:ExoRoman-Bold, Exo; font-size:20.55px; font-variation-settings:&apos;wght&apos; 700; font-weight:700;"><tspan x="0" y="0" style="letter-spacing:-.01em;">C</tspan><tspan x="11.84" y="0" style="letter-spacing:0em;">onexión</tspan><tspan x="0" y="24.66">Segura</tspan></text></svg>
